!! 00053] TT[KA
!! Kassette von Frau Li Wenzhen, Peking - Zum Gesangsheft
!!!OTL: Nuo en ji ya
!!!ARE: Neimeng
!! Ethnic Group: Menggu
!! MM,, Seite 31, 2
!!!SCT: C1276
!!!YEM: Copyright 1995, estate of Helmut Schaffrath.
**kern
*ICvox
*Ivox
*M4/4
*k[]
*C:
{4a
8dd
8cc
8.a
16g
4e
=1
8dd
8gg
2.ee}
=2
{8.dd
16ee
8aa
8gg
8.ee
16dd
8cc
8a
=3
8cc
8ee
2.dd}
=4
{8.cc
16dd
4ee
8ee
8gg
4a
=5
8g
8a
2.cc}
=6
{8.g
16a
8dd
8cc
8a
8g
4e
=7
8g
8cc
2.a}
=8
{4a
8dd
8cc
8.a
16g
4e
=9
8dd
8gg
2.ee}
=10
{8.dd
16ee
8aa
8gg
8.ee
16dd
8cc
8a
=11
8cc
8ee
2.dd}
=12
{8.cc
16dd
4ee
8ee
8gg
4a
=13
8g
8a
2.cc}
=14
{8.g
16a
8dd
8cc
8a
8g
4e
=15
8g
8cc
2.a}
==
!!!AGN: NN
!! Die Stuecke sind meist uebersteuert, also verzerrt.
!!    Vereinzelt Verzierungen.
!!!ONB: ESAC (Essen Associative Code) Database: CHINA
!!!AMT: simple quadruple
!!!AIN: vox
!!!EED: Helmut Schaffrath
!!!EEV: 1.0
*-
